ui/StatusQ/src/assets/img/icons/bigger/browser.svg

<svg fill="none" height="24" viewBox="0 0 24 24" width="24" xmlns="http://www.w3.org/2000/svg"><g clip-rule="evenodd" fill="#939ba1" fill-rule="evenodd"><path d="m12 21.5c5.2467 0 9.5-4.2533 9.5-9.5 0-5.24671-4.2533-9.5-9.5-9.5-5.24671 0-9.5 4.25329-9.5 9.5 0 5.2467 4.25329 9.5 9.5 9.5zm0 1.5c6.0751 0 11-4.9249 11-11 0-6.07513-4.9249-11-11-11-6.07513 0-11 4.92487-11 11 0 6.0751 4.92487 11 11 11z"/><path d="m7.24014 16.1491c-.09744.3703.24048.7082.61079.6108l6.77087-1.7818c.1743-.0459.3104-.182.3563-.3563l1.7818-6.77087c.0974-.37031-.2405-.70823-.6108-.61079l-6.77087 1.7818c-.17429.04587-.31042.182-.35629.35629zm2.01777-1.7735c-.05847.2222.14429.425.36647.3665l3.76942-.992c.1743-.0458.3105-.182.3563-.3563l.992-3.76942c.0585-.22218-.1443-.42494-.3665-.36647l-3.7694.99199c-.1743.0458-.3105.182-.3563.3563z"/></g></svg>

<svg width="24" height="24" viewBox="0 0 24 24" fill="none" xmlns="http://www.w3.org/2000/svg">
<path fill-rule="evenodd" clip-rule="evenodd" d="M12 21.5C17.2467 21.5 21.5 17.2467 21.5 12C21.5 6.75329 17.2467 2.5 12 2.5C6.75329 2.5 2.5 6.75329 2.5 12C2.5 17.2467 6.75329 21.5 12 21.5ZM12 23C18.0751 23 23 18.0751 23 12C23 5.92487 18.0751 1 12 1C5.92487 1 1 5.92487 1 12C1 18.0751 5.92487 23 12 23Z" fill="#939BA1"/>
<path fill-rule="evenodd" clip-rule="evenodd" d="M7.24014 16.1491C7.1427 16.5194 7.48062 16.8573 7.85093 16.7599L14.6218 14.9781C14.7961 14.9322 14.9322 14.7961 14.9781 14.6218L16.7599 7.85093C16.8573 7.48062 16.5194 7.1427 16.1491 7.24014L9.37823 9.02194C9.20394 9.06781 9.06781 9.20394 9.02194 9.37823L7.24014 16.1491ZM9.25791 14.3756C9.19944 14.5978 9.4022 14.8006 9.62438 14.7421L13.3938 13.7501C13.5681 13.7043 13.7043 13.5681 13.7501 13.3938L14.7421 9.62438C14.8006 9.4022 14.5978 9.19944 14.3756 9.25791L10.6062 10.2499C10.4319 10.2957 10.2957 10.4319 10.2499 10.6062L9.25791 14.3756Z" fill="#939BA1"/>
</svg>
